X: 622
T: Gonggunr kuqi
%%abc-version 2.0
%%abcx-abcm2ps-target-version 5.9.1 (29 Sep 2008)
%%abc-creator hum2abc beta
%%abcx-conversion-date 2013/10/02 07:52:30
%%abc-edited-by Helmut Schaffrath
%%humdrum-veritas 1850097125
%%humdrum-veritas-data 4219899235
%%continueall 1
%%barnumbers 0
L: 1/8
M: 2/4
K: F
d d/ d/ d d [I:setbarnb 1]| 
f fc2 | 
d/ f/ d/ c/ B B | 
d d G/ A/ G/ F/ | 
G4 | 
A A c c | 
d> d d d | 
G/ A/ G/ F/ E z | 
Ez3 | 
z2F2- | 
F G A c/ A/ | 
G3F | 
D/ D/ D/ D/ G/ F/ D | 
C4 |]  



